X:1
T:Min Jesus, lad mit Hjerte faa
T:(Salmer og Aandelige Sange, no.32)
T:Carl Nielsen (FS83/32)
T:Bjørn Christian Lund
T:Min Jesus, lad mit Hjerte faa (Salmer og Aandelige Sange, no.32)
T:Copyright (c) 2006 by Choral Public Domain Library (http://www.cpdl.org). Edition may be freely distributed, duplicated, performed or recorded.
T:Copyright (c) 2006 by Choral Public Domain Library (http://www.cpdl.org). Edition may be freely distributed, duplicated, performed or recorded.
C:Carl Nielsen (FS83/32)
Z:Bjørn Christian Lund
Z:Copyright (c) 2006 by Choral Public Domain Library (http://www.cpdl.org).
Z:Edition may be freely distributed, duplicated, performed or recorded.
%%score [ ( 1 2 ) ( 3 4 ) ]
L:1/8
M:3/2
K:A
V:1 treble nm="S A"
V:2 treble 
V:3 bass nm="T B"
V:4 bass 
V:1
 E4 | A2 G2 A6 F2 | E2 D2 C6 E2 | A2 G2 A4 B4 | c8 A4 | e2 c2 d6 B2 | c2 A2 F6 G2 | A2 B2 c4 B4 | %8
w: Min|Je- sus, lad mit|Hjer- te faa en|saa- dan Smag paa|dig, at|Dag og Nat du|væ- re maa min|Sjæl u- mi- ste-|
 !fermata!A8 |] %9
w: lig.|
V:2
 E4 | E2 E2 C6 D2 | A,2 A,2 A,6 C2 | C2 E2 F4 G4 | A8 E4 | G2 A2 F6 E2 | E2 C2 D6 D2 | %7
 E2 E2 E4 E4 | !fermata!C8 |] %9
V:3
 C4 | C2 B,2 A,6 A,2 | A,2 F,2 E,6 A,2 | A,2 B,2 D4 D4 | E8 C4 | B,2 A,2 B,6 G,2 | %6
"^1.2.3.4.""^Min Jesus, lad mit Hjerte faaen saadan Smag paa dig,at Dag og Nat du være maamin Sjæl umistelig.Da bliver Naadens Tid og Stundmig sød og lystelig,thi du mig kysser med din Mundog tager hjem til dig.Mit Hjerte i den Grav, du laatil Paaskemorgen rød,lad, naar det aftner, Hvile faaog smile ad sin Død!Før saa mig arme Synder hjemmed din Retfærdighedtil dit det ny Jerusalem,til al din Herlighed!                    Bjørn Christian Lund (1738-1809)" A,2 A,2 A,6 B,2 | %7
 A,2 G,2 A,4 G,4 | !fermata!A,8 |] %9
V:4
 A,4 | A,2 E,2 F,6 D,2 | C,2 D,2 A,,6 A,2 | F,2 E,2 D,4 B,,4 | A,,8 A,4 | E,2 F,2 B,,6 E,2 | %6
 C,2 F,2 D,6 B,,2 | C,2 E,2 A,4 E,4 | !fermata![A,,E,]8 |] %9

